_site/presentaciones/04-diagramas-causales/images/variable-mediadora.svg

<?xml version="1.0" encoding="UTF-8" standalone="no"?>
<svg
   width="784"
   height="161"
   xml:space="preserve"
   overflow="hidden"
   version="1.1"
   id="svg9"
   sodipodi:docname="variable-mediadora.svg"
   inkscape:version="1.4 (86a8ad7, 2024-10-11)"
   xmlns:inkscape="http://www.inkscape.org/namespaces/inkscape"
   xmlns:sodipodi="http://sodipodi.sourceforge.net/DTD/sodipodi-0.dtd"
   xmlns="http://www.w3.org/2000/svg"
   xmlns:svg="http://www.w3.org/2000/svg"><sodipodi:namedview
     id="namedview9"
     pagecolor="#ffffff"
     bordercolor="#000000"
     borderopacity="0.25"
     inkscape:showpageshadow="2"
     inkscape:pageopacity="0.0"
     inkscape:pagecheckerboard="0"
     inkscape:deskcolor="#d1d1d1"
     inkscape:zoom="2.2653061"
     inkscape:cx="392.22072"
     inkscape:cy="80.563063"
     inkscape:window-width="1920"
     inkscape:window-height="1057"
     inkscape:window-x="-8"
     inkscape:window-y="-8"
     inkscape:window-maximized="1"
     inkscape:current-layer="g9" /><defs
     id="defs1"><clipPath
       id="clip0"><rect
         x="248"
         y="340"
         width="784"
         height="161"
         id="rect1" /></clipPath></defs><g
     clip-path="url(#clip0)"
     transform="translate(-248 -340)"
     id="g9"><text
       font-family="Gill Sans MT Condensed,Gill Sans MT Condensed_MSFontService,sans-serif"
       font-weight="400"
       font-stretch="condensed"
       font-size="48"
       transform="matrix(0.999999 0 0 0.999999 245.21 476)"
       id="text1">Fumador</text><text
       font-family="Calibri,Calibri_MSFontService,sans-serif"
       font-weight="700"
       font-size="85"
       transform="matrix(1.10537 0 0 1.10537 621.43 400)"
       id="text2">B</text><text
       font-family="Calibri,Calibri_MSFontService,sans-serif"
       font-weight="700"
       font-size="85"
       transform="matrix(1.10537 0 0 1.10537 943.458 400)"
       id="text3">Y</text><text
       font-family="Calibri,Calibri_MSFontService,sans-serif"
       font-weight="700"
       font-size="85"
       transform="matrix(1.10537 0 0 1.10537 277.585 400)"
       id="text4">A</text><path
       d="m 351.406,370.205 h 31.348 29.924 35.623 29.213 37.044 30.64 26.45441"
       stroke="#000000"
       stroke-width="12.5333"
       fill="none"
       id="path4"
       sodipodi:nodetypes="cccccccc" /><path
       d="M567.207 370.205 554.673 382.739 598.54 370.205 554.673 357.672Z"
       fill-rule="evenodd"
       id="path5" /><path
       d="m 684.585,370.205 h 31.346 29.926 35.624 29.211 37.048 30.636 21.15611"
       stroke="#000000"
       stroke-width="12.5333"
       fill="none"
       id="path6"
       sodipodi:nodetypes="cccccccc" /><path
       d="M900.384 370.205 887.851 382.739 931.718 370.205 887.851 357.672Z"
       fill-rule="evenodd"
       id="path7" /><text
       font-family="Gill Sans MT Condensed,Gill Sans MT Condensed_MSFontService,sans-serif"
       font-weight="400"
       font-stretch="condensed"
       font-size="48"
       transform="matrix(0.999999 0 0 0.999999 557.301 476)"
       id="text7">Daño celular</text><text
       font-family="Gill Sans MT Condensed,Gill Sans MT Condensed_MSFontService,sans-serif"
       font-weight="400"
       font-stretch="condensed"
       font-size="48"
       transform="matrix(0.999999 0 0 0.999999 922.481 451)"
       id="text8">Cancer </text><text
       font-family="Gill Sans MT Condensed,Gill Sans MT Condensed_MSFontService,sans-serif"
       font-weight="400"
       font-stretch="condensed"
       font-size="48"
       transform="matrix(0.999999 0 0 0.999999 902.724 490)"
       id="text9">pulmonar</text></g></svg>

<svg width="784" height="161" xmlns="http://www.w3.org/2000/svg" xmlns:xlink="http://www.w3.org/1999/xlink" xml:space="preserve" overflow="hidden"><defs><clipPath id="clip0"><rect x="248" y="340" width="784" height="161"/></clipPath></defs><g clip-path="url(#clip0)" transform="translate(-248 -340)"><text font-family="Gill Sans MT Condensed,Gill Sans MT Condensed_MSFontService,sans-serif" font-weight="400" font-stretch="condensed" font-size="48" transform="matrix(0.999999 0 0 0.999999 245.21 476)">Fumador</text><text font-family="Calibri,Calibri_MSFontService,sans-serif" font-weight="700" font-size="85" transform="matrix(1.10537 0 0 1.10537 621.43 400)">B</text><text font-family="Calibri,Calibri_MSFontService,sans-serif" font-weight="700" font-size="85" transform="matrix(1.10537 0 0 1.10537 943.458 400)">Y</text><text font-family="Calibri,Calibri_MSFontService,sans-serif" font-weight="700" font-size="85" transform="matrix(1.10537 0 0 1.10537 277.585 400)">A</text><path d="M351.406 370.205 382.754 370.205 412.678 370.205 448.301 370.205 477.514 370.205 514.558 370.205 545.198 370.205 582.247 370.205" stroke="#000000" stroke-width="12.5333" fill="none"/><path d="M567.207 370.205 554.673 382.739 598.54 370.205 554.673 357.672Z" fill-rule="evenodd"/><path d="M684.585 370.205 715.931 370.205 745.857 370.205 781.481 370.205 810.692 370.205 847.74 370.205 878.376 370.205 915.424 370.205" stroke="#000000" stroke-width="12.5333" fill="none"/><path d="M900.384 370.205 887.851 382.739 931.718 370.205 887.851 357.672Z" fill-rule="evenodd"/><text font-family="Gill Sans MT Condensed,Gill Sans MT Condensed_MSFontService,sans-serif" font-weight="400" font-stretch="condensed" font-size="48" transform="matrix(0.999999 0 0 0.999999 557.301 476)">Daño celular</text><text font-family="Gill Sans MT Condensed,Gill Sans MT Condensed_MSFontService,sans-serif" font-weight="400" font-stretch="condensed" font-size="48" transform="matrix(0.999999 0 0 0.999999 922.481 451)">Cancer </text><text font-family="Gill Sans MT Condensed,Gill Sans MT Condensed_MSFontService,sans-serif" font-weight="400" font-stretch="condensed" font-size="48" transform="matrix(0.999999 0 0 0.999999 902.724 490)">pulmonar</text></g></svg>
